flaticon/weather/bolt.svg

<svg xmlns="http://www.w3.org/2000/svg" width="32" height="32" viewBox="0 0 24 24">
    <path d="M 5.800781 24 L 9.261719 14.109375 L 6.757812 14.109375 L 9.984375 7.660156 L 7.511719 7.660156 L 12.019531 0 L 18.199219 0 L 15.78125 4.03125 L 17.351562 4.03125 L 13.722656 10.882812 L 15.890625 10.882812 Z M 8.0625 13.304688 L 10.398438 13.304688 L 8.214844 19.535156 L 14.25 11.691406 L 12.386719 11.691406 L 16.011719 4.835938 L 14.359375 4.835938 L 16.777344 0.804688 L 12.476562 0.804688 L 8.921875 6.851562 L 11.289062 6.851562 Z M 8.0625 13.304688"/>
</svg>

<svg xmlns="http://www.w3.org/2000/svg" width="32" height="32" viewBox="0 0 24 24">
    <path d="M5.8 24l3.462-9.89H6.758l3.226-6.45H7.512L12.02 0h6.18L15.78 4.031h1.57l-3.628 6.852h2.168zm2.263-10.695h2.335l-2.183 6.23 6.035-7.844h-1.863l3.625-6.855h-1.653L16.777.805h-4.3L8.922 6.852h2.367zm0 0"/>
</svg>
